; generated by PrusaSlicer 2.5.2+linux-x64-GTK3 on 2023-11-15 at 16:48:33 UTC


;
;
; 

; external perimeters extrusion width = 0.45mm
; perimeters extrusion width = 0.45mm
; infill extrusion width = 0.45mm
; solid infill extrusion width = 0.45mm
; top infill extrusion width = 0.40mm
; first layer extrusion width = 0.42mm

M73 P0 R103
M73 Q0 S103
M201 X1000 Y1000 Z200 E5000 ; sets maximum accelerations, mm/sec^2
M203 X200 Y200 Z12 E120 ; sets maximum feedrates, mm / sec
M204 P1250 R1250 T1250 ; sets acceleration (P, T) and retract acceleration (R), mm/sec^2
M205 X8.00 Y8.00 Z0.40 E4.50 ; sets the jerk limits, mm/sec
M205 S0 T0 ; sets the minimum extruding and travel feed rate, mm/sec
M107
;TYPE:Custom
M862.3 P "MK3S" ; printer model check
M862.1 P0.4 ; nozzle diameter check
M115 U3.12.2 ; tell printer latest fw version
G90 ; use absolute coordinates
M83 ; extruder relative mode
M104 S215 ; set extruder temp
M140 S60 ; set bed temp
M190 S60 ; wait for bed temp
M109 S215 ; wait for extruder temp
G28 W ; home all without mesh bed level
G80 ; mesh bed leveling

G1 Z0.2 F720
G1 Y-3 F1000 ; go outside print area
G92 E0
G1 X60 E9 F1000 ; intro line
G1 X100 E12.5 F1000 ; intro line

G92 E0
M221 S95

; Don't change E values below. Excessive value can damage the printer.
M907 E430 ; set extruder motor current
G21 ; set units to millimeters
G90 ; use absolute coordinates
M83 ; use relative distances for extrusion
M900 K0.05 ; Filament gcode LA 1.5
M900 K30 ; Filament gcode LA 1.0
M107
;LAYER_CHANGE
;Z:0.2
;HEIGHT:0.2
;BEFORE_LAYER_CHANGE
G92 E0.0
;0.2


M73 P0 R102
G1 E-.8 F2100
G1 Z.4 F720
;AFTER_LAYER_CHANGE
;0.2
G1 X72.515 Y38.193 F10800
G1 Z.2 F720
G1 E.8 F2100
M204 S800
;TYPE:Skirt/Brim
;WIDTH:0.42
G1 F1200
G1 X73.56 Y37.317 E.04278
G1 X74.5 Y37.123 E.03008
G1 X175.5 Y37.123 E3.16678
G1 X176.807 Y37.515 E.04278
M73 Q0 S102
G1 X177.683 Y38.56 E.04278
G1 X177.877 Y39.5 E.03008
G1 X177.877 Y170.5 E4.10741
G1 X177.485 Y171.807 E.04278
G1 X176.44 Y172.683 E.04278
G1 X175.5 Y172.877 E.03008
G1 X74.5 Y172.877 E3.16678
G1 X73.193 Y172.485 E.04278
G1 X72.317 Y171.44 E.04278
G1 X72.123 Y170.5 E.03008
G1 X72.123 Y39.5 E4.10741
G1 X72.497 Y38.25 E.0409
M204 S1000
; printing object label-holder-lower-plate.stl id:0 copy 0
;WIPE_START
G1 F8640
G1 X73.56 Y37.317 E-.32671
G1 X74.5 Y37.123 E-.22155
G1 X75.417 Y37.123 E-.21174
;WIPE_END
G1 E-.04 F2100
G1 Z.6 F720
G1 X174.336 Y40.664 F10800
G1 Z.2 F720
G1 E.8 F2100
M204 S800
;TYPE:Perimeter
;WIDTH:0.419999
G1 F1200
G1 X174.336 Y169.336 E4.0344
G1 X75.664 Y169.336 E3.09378
G1 X75.664 Y40.664 E4.0344
G1 X174.276 Y40.664 E3.09189
M204 S1000
G1 X174.713 Y40.287 F10800
M204 S800
G1 F1200
G1 X174.713 Y169.713 E4.05805
G1 X75.287 Y169.713 E3.11742
G1 X75.287 Y40.287 E4.05805
M73 P1 R101
M73 Q1 S102
G1 X174.653 Y40.287 E3.11554
M204 S1000
M73 Q1 S101
G1 X175.09 Y39.91 F10800
M204 S800
;TYPE:External perimeter
G1 F1200
G1 X175.09 Y170.09 E4.0817
G1 X74.91 Y170.09 E3.14107
G1 X74.91 Y39.91 E4.0817
G1 X175.03 Y39.91 E3.13919
M204 S1000
G1 X175.003 Y40.3 F10800
;WIPE_START
G1 F8640
G1 X175.032 Y43.201 E-.76
;WIPE_END
G1 E-.04 F2100
G1 Z.6 F720
G1 X174.166 Y41.596 F10800
G1 Z.2 F720
G1 E.8 F2100
M204 S800
;TYPE:Solid infill
;WIDTH:0.420165
G1 F1200
G1 X173.573 Y41.004 E.0263
G1 X173.04 Y41.004 E.01674
G1 X173.996 Y41.96 E.04244
G1 X173.996 Y42.494 E.01674
G1 X172.506 Y41.004 E.06611
G1 X171.973 Y41.004 E.01674
G1 X173.996 Y43.027 E.08978
G1 X173.996 Y43.561 E.01674
G1 X171.439 Y41.004 E.11344
G1 X170.906 Y41.004 E.01674
G1 X173.996 Y44.094 E.13711
G1 X173.996 Y44.628 E.01674
G1 X170.372 Y41.004 E.16078
G1 X169.839 Y41.004 E.01673
G1 X173.996 Y45.161 E.18444
G1 X173.996 Y45.695 E.01674
G1 X169.305 Y41.004 E.20811
G1 X168.772 Y41.004 E.01674
G1 X173.996 Y46.228 E.23178
G1 X173.996 Y46.762 E.01674
G1 X168.238 Y41.004 E.25544
G1 X167.705 Y41.004 E.01674
G1 X173.996 Y47.295 E.27911
G1 X173.996 Y47.829 E.01674
G1 X167.171 Y41.004 E.30278
G1 X166.638 Y41.004 E.01674
G1 X173.996 Y48.362 E.32645
G1 X173.996 Y48.896 E.01674
G1 X166.104 Y41.004 E.35011
G1 X165.571 Y41.004 E.01674
G1 X173.996 Y49.429 E.37378
G1 X173.996 Y49.963 E.01674
G1 X165.037 Y41.004 E.39745
G1 X164.504 Y41.004 E.01674
G1 X173.996 Y50.496 E.42111
G1 X173.996 Y51.03 E.01674
G1 X163.97 Y41.004 E.44478
G1 X163.437 Y41.004 E.01674
G1 X173.996 Y51.563 E.46845
G1 X173.996 Y52.097 E.01674
G1 X162.903 Y41.004 E.49211
G1 X162.37 Y41.004 E.01674
G1 X173.996 Y52.63 E.51578
G1 X173.996 Y53.164 E.01674
G1 X161.836 Y41.004 E.53945
G1 X161.303 Y41.004 E.01674
G1 X173.996 Y53.697 E.56311
G1 X173.996 Y54.231 E.01674
G1 X160.769 Y41.004 E.58678
G1 X160.236 Y41.004 E.01674
G1 X173.996 Y54.764 E.61045
G1 X173.996 Y55.298 E.01674
G1 X159.702 Y41.004 E.63411
G1 X159.169 Y41.004 E.01674
G1 X173.996 Y55.831 E.65778
G1 X173.996 Y56.365 E.01674
G1 X158.635 Y41.004 E.68145
G1 X158.102 Y41.004 E.01674
G1 X173.996 Y56.898 E.70512
G1 X173.996 Y57.432 E.01674
G1 X157.568 Y41.004 E.72878
G1 X157.035 Y41.004 E.01674
G1 X173.996 Y57.965 E.75245
G1 X173.996 Y58.499 E.01674
M73 P1 R100
G1 X156.501 Y41.004 E.77612
G1 X155.968 Y41.004 E.01674
G1 X173.996 Y59.032 E.79978
G1 X173.996 Y59.566 E.01674
M73 P2 R100
M73 Q2 S101
G1 X155.434 Y41.004 E.82345
G1 X154.901 Y41.004 E.01674
G1 X173.996 Y60.099 E.84712
G1 X173.996 Y60.633 E.01674
G1 X154.367 Y41.004 E.87078
G1 X153.834 Y41.004 E.01674
M73 Q2 S100
G1 X173.996 Y61.166 E.89445
G1 X173.996 Y61.7 E.01674
G1 X153.3 Y41.004 E.91812
G1 X152.767 Y41.004 E.01674
G1 X173.996 Y62.233 E.94178
G1 X173.996 Y62.767 E.01674
G1 X152.233 Y41.004 E.96545
G1 X151.7 Y41.004 E.01674
G1 X173.996 Y63.3 E.98912
G1 X173.996 Y63.834 E.01674
G1 X151.166 Y41.004 E1.01278
G1 X150.633 Y41.004 E.01674
G1 X173.996 Y64.367 E1.03645
G1 X173.996 Y64.901 E.01674
G1 X150.099 Y41.004 E1.06012
G1 X149.566 Y41.004 E.01674
G1 X173.996 Y65.434 E1.08379
G1 X173.996 Y65.968 E.01674
G1 X149.032 Y41.004 E1.10745
G1 X148.498 Y41.004 E.01674
G1 X173.996 Y66.502 E1.13112
G1 X173.996 Y67.035 E.01674
G1 X147.965 Y41.004 E1.15479
G1 X147.431 Y41.004 E.01674
G1 X173.996 Y67.569 E1.17845
G1 X173.996 Y68.102 E.01674
G1 X146.898 Y41.004 E1.20212
G1 X146.364 Y41.004 E.01674
G1 X173.996 Y68.636 E1.22579
G1 X173.996 Y69.169 E.01674
G1 X145.831 Y41.004 E1.24945
G1 X145.297 Y41.004 E.01674
G1 X173.996 Y69.703 E1.27312
G1 X173.996 Y70.236 E.01674
G1 X144.764 Y41.004 E1.29679
G1 X144.23 Y41.004 E.01674
G1 X173.996 Y70.77 E1.32045
G1 X173.996 Y71.303 E.01674
G1 X143.697 Y41.004 E1.34412
G1 X143.163 Y41.004 E.01674
G1 X173.996 Y71.837 E1.36779
G1 X173.996 Y72.37 E.01674
G1 X142.63 Y41.004 E1.39145
G1 X142.096 Y41.004 E.01674
G1 X173.996 Y72.904 E1.41512
G1 X173.996 Y73.437 E.01674
G1 X141.563 Y41.004 E1.43879
G1 X141.029 Y41.004 E.01674
G1 X173.996 Y73.971 E1.46246
G1 X173.996 Y74.504 E.01674
G1 X140.496 Y41.004 E1.48612
G1 X139.962 Y41.004 E.01674
G1 X173.996 Y75.038 E1.50979
G1 X173.996 Y75.571 E.01674
G1 X139.429 Y41.004 E1.53346
G1 X138.895 Y41.004 E.01674
M73 P2 R99
G1 X173.996 Y76.105 E1.55712
G1 X173.996 Y76.638 E.01673
M73 P3 R99
M73 Q3 S100
G1 X138.362 Y41.004 E1.58079
G1 X137.828 Y41.004 E.01674
M73 Q3 S99
G1 X173.996 Y77.172 E1.60446
G1 X173.996 Y77.705 E.01674
G1 X137.295 Y41.004 E1.62812
G1 X136.761 Y41.004 E.01674
G1 X173.996 Y78.239 E1.65179
G1 X173.996 Y78.772 E.01674
G1 X136.228 Y41.004 E1.67546
G1 X135.694 Y41.004 E.01674
G1 X173.996 Y79.306 E1.69912
G1 X173.996 Y79.839 E.01674
G1 X135.161 Y41.004 E1.72279
G1 X134.627 Y41.004 E.01674
G1 X173.996 Y80.373 E1.74646
G1 X173.996 Y80.906 E.01674
G1 X134.094 Y41.004 E1.77013
G1 X133.56 Y41.004 E.01674
G1 X173.996 Y81.44 E1.79379
G1 X173.996 Y81.973 E.01674
G1 X133.027 Y41.004 E1.81746
G1 X132.493 Y41.004 E.01674
G1 X173.996 Y82.507 E1.84113
G1 X173.996 Y83.04 E.01674
G1 X131.96 Y41.004 E1.86479
G1 X131.426 Y41.004 E.01674
G1 X173.996 Y83.574 E1.88846
G1 X173.996 Y84.107 E.01674
G1 X130.893 Y41.004 E1.91213
G1 X130.359 Y41.004 E.01674
G1 X173.996 Y84.641 E1.93579
G1 X173.996 Y85.174 E.01674
G1 X129.826 Y41.004 E1.95946
G1 X129.292 Y41.004 E.01674
G1 X173.996 Y85.708 E1.98313
G1 X173.996 Y86.241 E.01674
G1 X128.759 Y41.004 E2.00679
G1 X128.225 Y41.004 E.01674
G1 X173.996 Y86.775 E2.03046
G1 X173.996 Y87.308 E.01674
M73 P3 R98
G1 X127.692 Y41.004 E2.05413
G1 X127.158 Y41.004 E.01674
M73 P4 R98
M73 Q4 S98
G1 X173.996 Y87.842 E2.07779
G1 X173.996 Y88.375 E.01674
G1 X126.625 Y41.004 E2.10146
G1 X126.091 Y41.004 E.01674
G1 X173.996 Y88.909 E2.12513
G1 X173.996 Y89.442 E.01674
G1 X125.558 Y41.004 E2.1488
G1 X125.024 Y41.004 E.01674
G1 X173.996 Y89.976 E2.17246
G1 X173.996 Y90.509 E.01674
G1 X124.491 Y41.004 E2.19613
G1 X123.957 Y41.004 E.01674
G1 X173.996 Y91.043 E2.2198
G1 X173.996 Y91.576 E.01674
G1 X123.424 Y41.004 E2.24346
G1 X122.89 Y41.004 E.01674
G1 X173.996 Y92.11 E2.26713
G1 X173.996 Y92.643 E.01674
G1 X122.357 Y41.004 E2.2908
G1 X121.823 Y41.004 E.01674
G1 X173.996 Y93.177 E2.31446
G1 X173.996 Y93.71 E.01674
G1 X121.29 Y41.004 E2.33813
G1 X120.756 Y41.004 E.01674
G1 X173.996 Y94.244 E2.3618
G1 X173.996 Y94.777 E.01674
G1 X120.223 Y41.004 E2.38546
G1 X119.689 Y41.004 E.01674
G1 X173.996 Y95.311 E2.40913
G1 X173.996 Y95.844 E.01674
M73 P4 R97
G1 X119.156 Y41.004 E2.4328
G1 X118.622 Y41.004 E.01674
G1 X173.996 Y96.378 E2.45646
G1 X173.996 Y96.911 E.01674
M73 P5 R97
M73 Q5 S97
G1 X118.089 Y41.004 E2.48013
G1 X117.555 Y41.004 E.01674
G1 X173.996 Y97.445 E2.5038
G1 X173.996 Y97.978 E.01674
G1 X117.022 Y41.004 E2.52747
G1 X116.488 Y41.004 E.01674
G1 X173.996 Y98.512 E2.55113
G1 X173.996 Y99.045 E.01674
G1 X115.955 Y41.004 E2.5748
G1 X115.421 Y41.004 E.01674
G1 X173.996 Y99.579 E2.59847
G1 X173.996 Y100.112 E.01674
G1 X114.888 Y41.004 E2.62213
G1 X114.354 Y41.004 E.01674
G1 X173.996 Y100.646 E2.6458
G1 X173.996 Y101.179 E.01674
G1 X113.821 Y41.004 E2.66947
G1 X113.287 Y41.004 E.01674
G1 X173.996 Y101.713 E2.69313
G1 X173.996 Y102.246 E.01674
G1 X112.754 Y41.004 E2.7168
G1 X112.22 Y41.004 E.01674
G1 X173.996 Y102.78 E2.74047
G1 X173.996 Y103.313 E.01674
G1 X111.687 Y41.004 E2.76413
G1 X111.153 Y41.004 E.01674
M73 P5 R96
G1 X173.996 Y103.847 E2.7878
G1 X173.996 Y104.38 E.01674
M73 Q5 S96
G1 X110.62 Y41.004 E2.81147
G1 X110.086 Y41.004 E.01674
M73 P6 R96
M73 Q6 S96
G1 X173.996 Y104.914 E2.83513
G1 X173.996 Y105.447 E.01674
G1 X109.553 Y41.004 E2.8588
G1 X109.019 Y41.004 E.01674
G1 X173.996 Y105.981 E2.88247
G1 X173.996 Y106.514 E.01674
G1 X108.486 Y41.004 E2.90614
G1 X107.952 Y41.004 E.01674
G1 X173.996 Y107.048 E2.9298
G1 X173.996 Y107.581 E.01674
G1 X107.419 Y41.004 E2.95347
G1 X106.885 Y41.004 E.01674
G1 X173.996 Y108.115 E2.97714
G1 X173.996 Y108.648 E.01674
G1 X106.352 Y41.004 E3.0008
G1 X105.818 Y41.004 E.01674
G1 X173.996 Y109.182 E3.02447
G1 X173.996 Y109.715 E.01674
G1 X105.285 Y41.004 E3.04814
G1 X104.751 Y41.004 E.01674
G1 X173.996 Y110.249 E3.0718
G1 X173.996 Y110.782 E.01674
M73 P6 R95
G1 X104.218 Y41.004 E3.09547
G1 X103.684 Y41.004 E.01674
M73 Q6 S95
G1 X173.996 Y111.316 E3.11914
G1 X173.996 Y111.849 E.01674
M73 P7 R95
M73 Q7 S95
G1 X103.151 Y41.004 E3.1428
G1 X102.617 Y41.004 E.01674
G1 X173.996 Y112.383 E3.16647
G1 X173.996 Y112.916 E.01674
G1 X102.084 Y41.004 E3.19014
G1 X101.55 Y41.004 E.01674
G1 X173.996 Y113.45 E3.2138
G1 X173.996 Y113.983 E.01674
G1 X101.017 Y41.004 E3.23747
G1 X100.483 Y41.004 E.01674
G1 X173.996 Y114.517 E3.26114
G1 X173.996 Y115.05 E.01674
G1 X99.95 Y41.004 E3.28481
G1 X99.416 Y41.004 E.01674
G1 X173.996 Y115.584 E3.30847
G1 X173.996 Y116.117 E.01674
G1 X98.883 Y41.004 E3.33214
G1 X98.349 Y41.004 E.01674
M73 P7 R94
G1 X173.996 Y116.651 E3.35581
G1 X173.996 Y117.184 E.01674
M73 Q7 S94
G1 X97.816 Y41.004 E3.37947
G1 X97.282 Y41.004 E.01674
G1 X173.996 Y117.718 E3.40314
G1 X173.996 Y118.251 E.01674
M73 P8 R94
M73 Q8 S94
G1 X96.749 Y41.004 E3.42681
G1 X96.215 Y41.004 E.01674
G1 X173.996 Y118.785 E3.45047
G1 X173.996 Y119.318 E.01674
G1 X95.682 Y41.004 E3.47414
G1 X95.148 Y41.004 E.01674
G1 X173.996 Y119.852 E3.49781
G1 X173.996 Y120.386 E.01674
G1 X94.614 Y41.004 E3.52147
G1 X94.081 Y41.004 E.01674
G1 X173.996 Y120.919 E3.54514
G1 X173.996 Y121.453 E.01674
G1 X93.547 Y41.004 E3.56881
G1 X93.014 Y41.004 E.01674
G1 X173.996 Y121.986 E3.59247
G1 X173.996 Y122.52 E.01674
M73 P8 R93
G1 X92.48 Y41.004 E3.61614
G1 X91.947 Y41.004 E.01674
M73 Q8 S93
G1 X173.996 Y123.053 E3.63981
G1 X173.996 Y123.587 E.01674
G1 X91.413 Y41.004 E3.66348
G1 X90.88 Y41.004 E.01674
M73 P9 R93
M73 Q9 S93
G1 X173.996 Y124.12 E3.68714
G1 X173.996 Y124.654 E.01674
G1 X90.346 Y41.004 E3.71081
G1 X89.813 Y41.004 E.01674
G1 X173.996 Y125.187 E3.73448
G1 X173.996 Y125.721 E.01674
G1 X89.279 Y41.004 E3.75814
G1 X88.746 Y41.004 E.01674
G1 X173.996 Y126.254 E3.78181
G1 X173.996 Y126.788 E.01674
G1 X88.212 Y41.004 E3.80548
G1 X87.679 Y41.004 E.01674
G1 X173.996 Y127.321 E3.82914
G1 X173.996 Y127.855 E.01674
M73 P9 R92
G1 X87.145 Y41.004 E3.85281
G1 X86.612 Y41.004 E.01674
M73 Q9 S92
G1 X173.996 Y128.388 E3.87648
G1 X173.996 Y128.922 E.01674
G1 X86.078 Y41.004 E3.90014
G1 X85.545 Y41.004 E.01674
M73 P10 R92
M73 Q10 S92
G1 X173.996 Y129.455 E3.92381
G1 X173.996 Y129.989 E.01674
G1 X85.011 Y41.004 E3.94748
G1 X84.478 Y41.004 E.01674
G1 X173.996 Y130.522 E3.97114
G1 X173.996 Y131.056 E.01674
G1 X83.944 Y41.004 E3.99481
G1 X83.411 Y41.004 E.01674
G1 X173.996 Y131.589 E4.01848
G1 X173.996 Y132.123 E.01674
G1 X82.877 Y41.004 E4.04215
G1 X82.344 Y41.004 E.01674
G1 X173.996 Y132.656 E4.06581
G1 X173.996 Y133.19 E.01674
M73 P10 R91
M73 Q10 S91
G1 X81.81 Y41.004 E4.08948
G1 X81.277 Y41.004 E.01674
G1 X173.996 Y133.723 E4.11315
G1 X173.996 Y134.257 E.01674
M73 P11 R91
M73 Q11 S91
G1 X80.743 Y41.004 E4.13681
G1 X80.21 Y41.004 E.01674
G1 X173.996 Y134.79 E4.16048
G1 X173.996 Y135.324 E.01674
G1 X79.676 Y41.004 E4.18415
G1 X79.143 Y41.004 E.01674
G1 X173.996 Y135.857 E4.20781
G1 X173.996 Y136.391 E.01674
G1 X78.609 Y41.004 E4.23148
G1 X78.076 Y41.004 E.01674
G1 X173.996 Y136.924 E4.25515
G1 X173.996 Y137.458 E.01674
G1 X77.542 Y41.004 E4.27881
G1 X77.009 Y41.004 E.01674
M73 P11 R90
M73 Q11 S90
G1 X173.996 Y137.991 E4.30248
G1 X173.996 Y138.525 E.01674
G1 X76.475 Y41.004 E4.32615
G1 X76.004 Y41.004 E.0148
M73 P12 R90
M73 Q12 S90
G1 X76.004 Y41.065 E.00194
G1 X173.996 Y139.058 E4.34708
G1 X173.996 Y139.592 E.01674
G1 X76.004 Y41.599 E4.34708
G1 X76.004 Y42.132 E.01674
G1 X173.996 Y140.125 E4.34708
G1 X173.996 Y140.659 E.01674
G1 X76.004 Y42.666 E4.34708
G1 X76.004 Y43.199 E.01674
G1 X173.996 Y141.192 E4.34708
G1 X173.996 Y141.726 E.01674
G1 X76.004 Y43.733 E4.34708
G1 X76.004 Y44.266 E.01674
M73 P12 R89
G1 X173.996 Y142.259 E4.34708
G1 X173.996 Y142.793 E.01674
M73 Q12 S89
G1 X76.004 Y44.8 E4.34708
G1 X76.004 Y45.333 E.01674
G1 X173.996 Y143.326 E4.34708
G1 X173.996 Y143.86 E.01674
M73 P13 R89
M73 Q13 S89
G1 X76.004 Y45.867 E4.34708
G1 X76.004 Y46.4 E.01674
G1 X173.996 Y144.393 E4.34708
G1 X173.996 Y144.927 E.01674
G1 X76.004 Y46.934 E4.34708
G1 X76.004 Y47.467 E.01674
G1 X173.996 Y145.46 E4.34708
G1 X173.996 Y145.994 E.01674
G1 X76.004 Y48.001 E4.34708
G1 X76.004 Y48.534 E.01674
G1 X173.996 Y146.527 E4.34708
G1 X173.996 Y147.061 E.01674
M73 P13 R88
G1 X76.004 Y49.068 E4.34708
G1 X76.004 Y49.601 E.01674
M73 Q13 S88
G1 X173.996 Y147.594 E4.34708
G1 X173.996 Y148.128 E.01674
G1 X76.004 Y50.135 E4.34708
G1 X76.004 Y50.668 E.01674
M73 P14 R88
M73 Q14 S88
G1 X173.996 Y148.661 E4.34708
G1 X173.996 Y149.195 E.01674
G1 X76.004 Y51.202 E4.34708
G1 X76.004 Y51.735 E.01674
G1 X173.996 Y149.728 E4.34708
G1 X173.996 Y150.262 E.01674
G1 X76.004 Y52.269 E4.34708
G1 X76.004 Y52.802 E.01674
G1 X173.996 Y150.795 E4.34708
G1 X173.996 Y151.329 E.01674
M73 P14 R87
G1 X76.004 Y53.336 E4.34708
G1 X76.004 Y53.869 E.01674
M73 Q14 S87
G1 X173.996 Y151.862 E4.34708
G1 X173.996 Y152.396 E.01674
G1 X76.004 Y54.403 E4.34708
G1 X76.004 Y54.936 E.01674
G1 X173.996 Y152.929 E4.34708
G1 X173.996 Y153.463 E.01674
M73 P15 R87
M73 Q15 S87
G1 X76.004 Y55.47 E4.34708
G1 X76.004 Y56.003 E.01674
G1 X173.996 Y153.996 E4.34708
G1 X173.996 Y154.53 E.01674
G1 X76.004 Y56.537 E4.34708
G1 X76.004 Y57.07 E.01674
G1 X173.996 Y155.063 E4.34708
G1 X173.996 Y155.597 E.01674
