; generated by PrusaSlicer 2.5.2+linux-x64-GTK3 on 2023-11-15 at 18:43:09 UTC


;
;
; 

; external perimeters extrusion width = 0.45mm
; perimeters extrusion width = 0.45mm
; infill extrusion width = 0.45mm
; solid infill extrusion width = 0.45mm
; top infill extrusion width = 0.40mm
; first layer extrusion width = 0.42mm

M73 P0 R57
M73 Q0 S58
M201 X1000 Y1000 Z200 E5000 ; sets maximum accelerations, mm/sec^2
M203 X200 Y200 Z12 E120 ; sets maximum feedrates, mm / sec
M204 P1250 R1250 T1250 ; sets acceleration (P, T) and retract acceleration (R), mm/sec^2
M205 X8.00 Y8.00 Z0.40 E4.50 ; sets the jerk limits, mm/sec
M205 S0 T0 ; sets the minimum extruding and travel feed rate, mm/sec
M107
;TYPE:Custom
M862.3 P "MK3S" ; printer model check
M862.1 P0.4 ; nozzle diameter check
M115 U3.12.2 ; tell printer latest fw version
G90 ; use absolute coordinates
M83 ; extruder relative mode
M104 S215 ; set extruder temp
M140 S60 ; set bed temp
M190 S60 ; wait for bed temp
M109 S215 ; wait for extruder temp
G28 W ; home all without mesh bed level
G80 ; mesh bed leveling

G1 Z0.2 F720
G1 Y-3 F1000 ; go outside print area
G92 E0
G1 X60 E9 F1000 ; intro line
G1 X100 E12.5 F1000 ; intro line

G92 E0
M221 S95

; Don't change E values below. Excessive value can damage the printer.
M907 E430 ; set extruder motor current
G21 ; set units to millimeters
G90 ; use absolute coordinates
M83 ; use relative distances for extrusion
M900 K0.05 ; Filament gcode LA 1.5
M900 K30 ; Filament gcode LA 1.0
M107
;LAYER_CHANGE
;Z:0.2
;HEIGHT:0.2
;BEFORE_LAYER_CHANGE
G92 E0.0
;0.2


G1 E-.8 F2100
G1 Z.4 F720
;AFTER_LAYER_CHANGE
;0.2
G1 X71.265 Y36.943 F10800
G1 Z.2 F720
G1 E.8 F2100
M204 S800
;TYPE:Skirt/Brim
;WIDTH:0.42
G1 F1200
G1 X72.31 Y36.067 E.04278
G1 X73.25 Y35.873 E.03008
G1 X176.75 Y35.873 E3.24517
G1 X178.057 Y36.265 E.04278
M73 Q0 S57
G1 X178.933 Y37.31 E.04278
G1 X179.127 Y38.25 E.03008
G1 X179.127 Y171.75 E4.1858
G1 X178.735 Y173.057 E.04278
G1 X177.69 Y173.933 E.04278
G1 X176.75 Y174.127 E.03008
G1 X73.25 Y174.127 E3.24517
G1 X71.943 Y173.735 E.04278
G1 X71.067 Y172.69 E.04278
G1 X70.873 Y171.75 E.03008
G1 X70.873 Y38.25 E4.1858
G1 X71.247 Y37 E.0409
M204 S1000
; printing object label-holder-upper-plate.stl id:0 copy 0
;WIPE_START
G1 F8640
G1 X72.31 Y36.067 E-.32671
G1 X73.25 Y35.873 E-.22155
G1 X74.167 Y35.873 E-.21174
;WIPE_END
G1 E-.04 F2100
G1 Z.6 F720
G1 X74.414 Y170.586 F10800
G1 Z.2 F720
G1 E.8 F2100
M204 S800
;TYPE:Perimeter
;WIDTH:0.419999
G1 F1200
G1 X74.414 Y39.414 E4.11279
G1 X175.586 Y39.414 E3.17216
M73 P1 R57
M73 Q1 S57
G1 X175.586 Y170.586 E4.11279
G1 X74.474 Y170.586 E3.17028
M204 S1000
M73 P1 R56
G1 X74.037 Y170.963 F10800
M204 S800
G1 F1200
G1 X74.037 Y39.037 E4.13644
G1 X175.963 Y39.037 E3.19581
G1 X175.963 Y170.963 E4.13644
G1 X74.097 Y170.963 E3.19393
M204 S1000
M73 P2 R56
M73 Q2 S56
G1 X73.66 Y171.34 F10800
M204 S800
;TYPE:External perimeter
G1 F1200
G1 X73.66 Y38.66 E4.16008
G1 X176.34 Y38.66 E3.21945
G1 X176.34 Y171.34 E4.16008
G1 X73.72 Y171.34 E3.21757
M204 S1000
G1 X73.747 Y170.95 F10800
;WIPE_START
G1 F8640
G1 X73.719 Y168.049 E-.76
;WIPE_END
G1 E-.04 F2100
G1 Z.6 F720
G1 X167.102 Y162.892 F10800
G1 Z.2 F720
G1 E.8 F2100
M204 S800
;TYPE:Perimeter
M73 Q3 S56
G1 F1200
G1 X166.971 Y162.914 E.00416
G1 X83.029 Y162.914 E2.63197
G1 X82.725 Y162.864 E.00966
M73 P3 R55
G1 X82.466 Y162.728 E.00917
G1 X82.272 Y162.534 E.00857
G1 X82.136 Y162.275 E.00917
G1 X82.086 Y161.971 E.00966
G1 X82.086 Y48.029 E3.57259
G1 X82.136 Y47.725 E.00966
G1 X82.272 Y47.466 E.00917
G1 X82.466 Y47.272 E.00857
G1 X82.725 Y47.136 E.00917
G1 X83.029 Y47.086 E.00966
G1 X166.971 Y47.086 E2.63197
G1 X167.275 Y47.136 E.00966
G1 X167.534 Y47.272 E.00917
G1 X167.728 Y47.466 E.00857
G1 X167.864 Y47.725 E.00917
G1 X167.914 Y48.029 E.00966
G1 X167.914 Y161.971 E3.57259
G1 X167.864 Y162.275 E.00966
G1 X167.728 Y162.534 E.00917
G1 X167.534 Y162.728 E.00857
G1 X167.275 Y162.864 E.00917
G1 X167.161 Y162.883 E.00362
M204 S1000
G1 X167.019 Y162.533 F10800
M204 S800
G1 F1200
G1 X83.029 Y162.537 E2.63346
G1 X82.764 Y162.471 E.00855
G1 X82.575 Y162.309 E.0078
G1 X82.471 Y162.065 E.00834
G1 X82.463 Y161.971 E.00293
G1 X82.463 Y48.029 E3.57259
G1 X82.529 Y47.764 E.00855
M73 Q3 S55
G1 X82.691 Y47.575 E.0078
G1 X82.935 Y47.471 E.00834
G1 X83.029 Y47.463 E.00293
G1 X166.971 Y47.463 E2.63197
G1 X167.236 Y47.529 E.00855
G1 X167.425 Y47.691 E.0078
G1 X167.529 Y47.935 E.00834
G1 X167.537 Y48.029 E.00293
G1 X167.537 Y161.971 E3.57259
G1 X167.471 Y162.236 E.00855
M73 P4 R55
M73 Q4 S55
G1 X167.309 Y162.425 E.0078
G1 X167.078 Y162.524 E.00789
M204 S1000
G1 X166.971 Y162.16 F10800
M204 S800
;TYPE:External perimeter
G1 F1200
G1 X83.029 Y162.16 E2.63197
G1 X82.895 Y162.105 E.00452
G1 X82.84 Y161.971 E.00452
G1 X82.84 Y48.029 E3.57259
G1 X82.895 Y47.895 E.00452
G1 X83.029 Y47.84 E.00452
G1 X166.971 Y47.84 E2.63197
G1 X167.105 Y47.895 E.00452
G1 X167.16 Y48.029 E.00452
G1 X167.16 Y161.971 E3.57259
G1 X167.105 Y162.105 E.00452
G1 X167.027 Y162.137 E.00264
M204 S1000
G1 X166.868 Y162.546 F10800
;WIPE_START
G1 F8640
G1 X163.735 Y162.138 E-.76
;WIPE_END
G1 E-.04 F2100
G1 Z.6 F720
G1 X174.653 Y39.584 F10800
G1 Z.2 F720
G1 E.8 F2100
M204 S800
;TYPE:Solid infill
;WIDTH:0.420489
G1 F1200
G1 X175.246 Y40.177 E.02636
G1 X175.246 Y40.711 E.01676
G1 X174.289 Y39.754 E.04253
G1 X173.755 Y39.754 E.01676
G1 X175.246 Y41.245 E.06624
G1 X175.246 Y41.779 E.01676
G1 X173.221 Y39.754 E.08995
G1 X172.687 Y39.754 E.01676
G1 X175.246 Y42.313 E.11365
G1 X175.246 Y42.847 E.01676
G1 X172.153 Y39.754 E.13736
G1 X171.619 Y39.754 E.01676
G1 X175.246 Y43.381 E.16107
G1 X175.246 Y43.915 E.01676
G1 X171.085 Y39.754 E.18478
G1 X170.551 Y39.754 E.01676
G1 X175.246 Y44.449 E.20848
G1 X175.246 Y44.983 E.01676
G1 X170.017 Y39.754 E.23219
G1 X169.483 Y39.754 E.01676
M73 P4 R54
G1 X175.246 Y45.517 E.2559
G1 X175.246 Y46.051 E.01676
G1 X168.949 Y39.754 E.27961
G1 X168.415 Y39.754 E.01676
G1 X175.246 Y46.585 E.30331
G1 X175.246 Y47.119 E.01676
G1 X167.881 Y39.754 E.32702
G1 X167.347 Y39.754 E.01676
G1 X175.246 Y47.653 E.35073
G1 X175.246 Y48.187 E.01676
G1 X166.813 Y39.754 E.37444
G1 X166.279 Y39.754 E.01676
G1 X175.246 Y48.721 E.39814
G1 X175.246 Y49.255 E.01676
G1 X165.745 Y39.754 E.42185
G1 X165.211 Y39.754 E.01676
G1 X175.246 Y49.789 E.44556
G1 X175.246 Y50.323 E.01676
G1 X164.677 Y39.754 E.46927
G1 X164.143 Y39.754 E.01676
M73 P5 R54
M73 Q5 S55
G1 X175.246 Y50.857 E.49297
G1 X175.246 Y51.391 E.01676
G1 X163.609 Y39.754 E.51668
G1 X163.075 Y39.754 E.01676
G1 X175.246 Y51.925 E.54039
G1 X175.246 Y52.459 E.01676
G1 X162.541 Y39.754 E.5641
G1 X162.007 Y39.754 E.01676
G1 X175.246 Y52.993 E.5878
G1 X175.246 Y53.527 E.01676
G1 X161.473 Y39.754 E.61151
G1 X160.94 Y39.754 E.01676
G1 X175.246 Y54.06 E.63522
G1 X175.246 Y54.594 E.01676
G1 X160.406 Y39.754 E.65893
G1 X159.872 Y39.754 E.01676
G1 X166.865 Y46.746 E.31048
G1 X166.331 Y46.746 E.01676
G1 X159.338 Y39.754 E.31048
G1 X158.804 Y39.754 E.01676
G1 X165.797 Y46.746 E.31048
G1 X165.263 Y46.746 E.01676
G1 X158.27 Y39.754 E.31048
G1 X157.736 Y39.754 E.01676
G1 X164.729 Y46.746 E.31048
G1 X164.195 Y46.746 E.01676
G1 X157.202 Y39.754 E.31048
G1 X156.668 Y39.754 E.01676
G1 X163.661 Y46.746 E.31048
G1 X163.127 Y46.746 E.01676
G1 X156.134 Y39.754 E.31048
G1 X155.6 Y39.754 E.01676
G1 X162.593 Y46.746 E.31048
G1 X162.059 Y46.746 E.01676
G1 X155.066 Y39.754 E.31048
G1 X154.532 Y39.754 E.01676
G1 X161.525 Y46.746 E.31048
G1 X160.991 Y46.746 E.01676
G1 X153.998 Y39.754 E.31048
G1 X153.464 Y39.754 E.01676
G1 X160.457 Y46.746 E.31048
G1 X159.923 Y46.746 E.01676
G1 X152.93 Y39.754 E.31048
G1 X152.396 Y39.754 E.01676
M73 Q5 S54
G1 X159.389 Y46.746 E.31048
G1 X158.855 Y46.746 E.01676
G1 X151.862 Y39.754 E.31048
G1 X151.328 Y39.754 E.01676
G1 X158.321 Y46.746 E.31048
G1 X157.787 Y46.746 E.01676
G1 X150.794 Y39.754 E.31048
G1 X150.26 Y39.754 E.01676
G1 X157.253 Y46.746 E.31048
G1 X156.719 Y46.746 E.01676
G1 X149.726 Y39.754 E.31048
G1 X149.192 Y39.754 E.01676
G1 X156.185 Y46.746 E.31048
G1 X155.651 Y46.746 E.01676
G1 X148.658 Y39.754 E.31048
G1 X148.124 Y39.754 E.01676
G1 X155.117 Y46.746 E.31048
G1 X154.583 Y46.746 E.01676
G1 X147.59 Y39.754 E.31048
G1 X147.056 Y39.754 E.01676
G1 X154.049 Y46.746 E.31048
G1 X153.515 Y46.746 E.01676
G1 X146.522 Y39.754 E.31048
G1 X145.989 Y39.754 E.01676
G1 X152.981 Y46.746 E.31048
G1 X152.448 Y46.746 E.01676
G1 X145.455 Y39.754 E.31048
G1 X144.921 Y39.754 E.01676
G1 X151.914 Y46.746 E.31048
G1 X151.38 Y46.746 E.01676
G1 X144.387 Y39.754 E.31048
G1 X143.853 Y39.754 E.01676
G1 X150.846 Y46.746 E.31048
G1 X150.312 Y46.746 E.01676
G1 X143.319 Y39.754 E.31048
G1 X142.785 Y39.754 E.01676
G1 X149.778 Y46.746 E.31048
G1 X149.244 Y46.746 E.01676
G1 X142.251 Y39.754 E.31048
G1 X141.717 Y39.754 E.01676
G1 X148.71 Y46.746 E.31048
G1 X148.176 Y46.746 E.01676
G1 X141.183 Y39.754 E.31048
G1 X140.649 Y39.754 E.01676
G1 X147.642 Y46.746 E.31048
G1 X147.108 Y46.746 E.01676
G1 X140.115 Y39.754 E.31048
G1 X139.581 Y39.754 E.01676
G1 X146.574 Y46.746 E.31048
G1 X146.04 Y46.746 E.01676
G1 X139.047 Y39.754 E.31048
G1 X138.513 Y39.754 E.01676
G1 X145.506 Y46.746 E.31048
G1 X144.972 Y46.746 E.01676
G1 X137.979 Y39.754 E.31048
G1 X137.445 Y39.754 E.01676
G1 X144.438 Y46.746 E.31048
G1 X143.904 Y46.746 E.01676
G1 X136.911 Y39.754 E.31048
G1 X136.377 Y39.754 E.01676
G1 X143.37 Y46.746 E.31048
G1 X142.836 Y46.746 E.01676
G1 X135.843 Y39.754 E.31048
G1 X135.309 Y39.754 E.01676
G1 X142.302 Y46.746 E.31048
G1 X141.768 Y46.746 E.01676
G1 X134.775 Y39.754 E.31048
G1 X134.241 Y39.754 E.01676
G1 X141.234 Y46.746 E.31048
G1 X140.7 Y46.746 E.01676
G1 X133.707 Y39.754 E.31048
G1 X133.173 Y39.754 E.01676
G1 X140.166 Y46.746 E.31048
M73 Q6 S54
G1 X139.632 Y46.746 E.01676
M73 P6 R54
G1 X132.639 Y39.754 E.31048
G1 X132.105 Y39.754 E.01676
G1 X139.098 Y46.746 E.31048
G1 X138.564 Y46.746 E.01676
G1 X131.572 Y39.754 E.31048
G1 X131.038 Y39.754 E.01676
G1 X138.031 Y46.746 E.31048
G1 X137.497 Y46.746 E.01676
G1 X130.504 Y39.754 E.31048
G1 X129.97 Y39.754 E.01676
G1 X136.963 Y46.746 E.31048
G1 X136.429 Y46.746 E.01676
G1 X129.436 Y39.754 E.31048
G1 X128.902 Y39.754 E.01676
G1 X135.895 Y46.746 E.31048
G1 X135.361 Y46.746 E.01676
G1 X128.368 Y39.754 E.31048
G1 X127.834 Y39.754 E.01676
G1 X134.827 Y46.746 E.31048
G1 X134.293 Y46.746 E.01676
G1 X127.3 Y39.754 E.31048
G1 X126.766 Y39.754 E.01676
G1 X133.759 Y46.746 E.31048
G1 X133.225 Y46.746 E.01676
G1 X126.232 Y39.754 E.31048
G1 X125.698 Y39.754 E.01676
G1 X132.691 Y46.746 E.31048
G1 X132.157 Y46.746 E.01676
G1 X125.164 Y39.754 E.31048
G1 X124.63 Y39.754 E.01676
G1 X131.623 Y46.746 E.31048
G1 X131.089 Y46.746 E.01676
G1 X124.096 Y39.754 E.31048
G1 X123.562 Y39.754 E.01676
G1 X130.555 Y46.746 E.31048
G1 X130.021 Y46.746 E.01676
G1 X123.028 Y39.754 E.31048
G1 X122.494 Y39.754 E.01676
G1 X129.487 Y46.746 E.31048
G1 X128.953 Y46.746 E.01676
G1 X121.96 Y39.754 E.31048
G1 X121.426 Y39.754 E.01676
G1 X128.419 Y46.746 E.31048
G1 X127.885 Y46.746 E.01676
G1 X120.892 Y39.754 E.31048
G1 X120.358 Y39.754 E.01676
G1 X127.351 Y46.746 E.31048
G1 X126.817 Y46.746 E.01676
G1 X119.824 Y39.754 E.31048
G1 X119.29 Y39.754 E.01676
G1 X126.283 Y46.746 E.31048
G1 X125.749 Y46.746 E.01676
G1 X118.756 Y39.754 E.31048
G1 X118.222 Y39.754 E.01676
G1 X125.215 Y46.746 E.31048
G1 X124.681 Y46.746 E.01676
G1 X117.688 Y39.754 E.31048
G1 X117.155 Y39.754 E.01676
G1 X124.147 Y46.746 E.31048
G1 X123.614 Y46.746 E.01676
G1 X116.621 Y39.754 E.31048
G1 X116.087 Y39.754 E.01676
G1 X123.08 Y46.746 E.31048
G1 X122.546 Y46.746 E.01676
G1 X115.553 Y39.754 E.31048
G1 X115.019 Y39.754 E.01676
G1 X122.012 Y46.746 E.31048
G1 X121.478 Y46.746 E.01676
G1 X114.485 Y39.754 E.31048
G1 X113.951 Y39.754 E.01676
G1 X120.944 Y46.746 E.31048
M73 P6 R53
G1 X120.41 Y46.746 E.01676
G1 X113.417 Y39.754 E.31048
G1 X112.883 Y39.754 E.01676
G1 X119.876 Y46.746 E.31048
G1 X119.342 Y46.746 E.01676
G1 X112.349 Y39.754 E.31048
G1 X111.815 Y39.754 E.01676
G1 X118.808 Y46.746 E.31048
G1 X118.274 Y46.746 E.01676
G1 X111.281 Y39.754 E.31048
G1 X110.747 Y39.754 E.01676
G1 X117.74 Y46.746 E.31048
G1 X117.206 Y46.746 E.01676
G1 X110.213 Y39.754 E.31048
G1 X109.679 Y39.754 E.01676
G1 X116.672 Y46.746 E.31048
G1 X116.138 Y46.746 E.01676
G1 X109.145 Y39.754 E.31048
G1 X108.611 Y39.754 E.01676
G1 X115.604 Y46.746 E.31048
G1 X115.07 Y46.746 E.01676
G1 X108.077 Y39.754 E.31048
G1 X107.543 Y39.754 E.01676
G1 X114.536 Y46.746 E.31048
G1 X114.002 Y46.746 E.01676
G1 X107.009 Y39.754 E.31048
G1 X106.475 Y39.754 E.01676
G1 X113.468 Y46.746 E.31048
G1 X112.934 Y46.746 E.01676
G1 X105.941 Y39.754 E.31048
G1 X105.407 Y39.754 E.01676
G1 X112.4 Y46.746 E.31048
G1 X111.866 Y46.746 E.01676
G1 X104.873 Y39.754 E.31048
G1 X104.339 Y39.754 E.01676
G1 X111.332 Y46.746 E.31048
G1 X110.798 Y46.746 E.01676
G1 X103.805 Y39.754 E.31048
G1 X103.271 Y39.754 E.01676
G1 X110.264 Y46.746 E.31048
G1 X109.73 Y46.746 E.01676
G1 X102.738 Y39.754 E.31048
G1 X102.204 Y39.754 E.01676
G1 X109.197 Y46.746 E.31048
G1 X108.663 Y46.746 E.01676
G1 X101.67 Y39.754 E.31048
G1 X101.136 Y39.754 E.01676
G1 X108.129 Y46.746 E.31048
G1 X107.595 Y46.746 E.01676
G1 X100.602 Y39.754 E.31048
G1 X100.068 Y39.754 E.01676
G1 X107.061 Y46.746 E.31048
G1 X106.527 Y46.746 E.01676
G1 X99.534 Y39.754 E.31048
G1 X99 Y39.754 E.01676
G1 X105.993 Y46.746 E.31048
G1 X105.459 Y46.746 E.01676
M73 P7 R53
G1 X98.466 Y39.754 E.31048
G1 X97.932 Y39.754 E.01676
M73 Q7 S54
G1 X104.925 Y46.746 E.31048
G1 X104.391 Y46.746 E.01676
G1 X97.398 Y39.754 E.31048
G1 X96.864 Y39.754 E.01676
G1 X103.857 Y46.746 E.31048
G1 X103.323 Y46.746 E.01676
G1 X96.33 Y39.754 E.31048
G1 X95.796 Y39.754 E.01676
G1 X102.789 Y46.746 E.31048
G1 X102.255 Y46.746 E.01676
G1 X95.262 Y39.754 E.31048
G1 X94.728 Y39.754 E.01676
G1 X101.721 Y46.746 E.31048
G1 X101.187 Y46.746 E.01676
G1 X94.194 Y39.754 E.31048
G1 X93.66 Y39.754 E.01676
G1 X100.653 Y46.746 E.31048
G1 X100.119 Y46.746 E.01676
G1 X93.126 Y39.754 E.31048
G1 X92.592 Y39.754 E.01676
M73 Q7 S53
G1 X99.585 Y46.746 E.31048
G1 X99.051 Y46.746 E.01676
G1 X92.058 Y39.754 E.31048
G1 X91.524 Y39.754 E.01676
G1 X98.517 Y46.746 E.31048
G1 X97.983 Y46.746 E.01676
G1 X90.99 Y39.754 E.31048
G1 X90.456 Y39.754 E.01676
G1 X97.449 Y46.746 E.31048
G1 X96.915 Y46.746 E.01676
G1 X89.922 Y39.754 E.31048
G1 X89.388 Y39.754 E.01676
G1 X96.381 Y46.746 E.31048
G1 X95.847 Y46.746 E.01676
G1 X88.854 Y39.754 E.31048
G1 X88.321 Y39.754 E.01676
G1 X95.313 Y46.746 E.31048
G1 X94.78 Y46.746 E.01676
G1 X87.787 Y39.754 E.31048
G1 X87.253 Y39.754 E.01676
G1 X94.246 Y46.746 E.31048
G1 X93.712 Y46.746 E.01676
G1 X86.719 Y39.754 E.31048
G1 X86.185 Y39.754 E.01676
G1 X93.178 Y46.746 E.31048
G1 X92.644 Y46.746 E.01676
G1 X85.651 Y39.754 E.31048
G1 X85.117 Y39.754 E.01676
G1 X92.11 Y46.746 E.31048
G1 X91.576 Y46.746 E.01676
G1 X84.583 Y39.754 E.31048
G1 X84.049 Y39.754 E.01676
G1 X91.042 Y46.746 E.31048
G1 X90.508 Y46.746 E.01676
G1 X83.515 Y39.754 E.31048
G1 X82.981 Y39.754 E.01676
G1 X89.974 Y46.746 E.31048
G1 X89.44 Y46.746 E.01676
G1 X82.447 Y39.754 E.31048
G1 X81.913 Y39.754 E.01676
G1 X88.906 Y46.746 E.31048
G1 X88.372 Y46.746 E.01676
G1 X81.379 Y39.754 E.31048
G1 X80.845 Y39.754 E.01676
G1 X87.838 Y46.746 E.31048
G1 X87.304 Y46.746 E.01676
G1 X80.311 Y39.754 E.31048
G1 X79.777 Y39.754 E.01676
G1 X86.77 Y46.746 E.31048
G1 X86.236 Y46.746 E.01676
G1 X79.243 Y39.754 E.31048
G1 X78.709 Y39.754 E.01676
G1 X85.702 Y46.746 E.31048
G1 X85.168 Y46.746 E.01676
G1 X78.175 Y39.754 E.31048
G1 X77.641 Y39.754 E.01676
G1 X84.634 Y46.746 E.31048
G1 X84.1 Y46.746 E.01676
G1 X77.107 Y39.754 E.31048
G1 X76.573 Y39.754 E.01676
G1 X83.566 Y46.746 E.31048
G1 X83.032 Y46.746 E.01676
G1 X76.039 Y39.754 E.31048
G1 X75.505 Y39.754 E.01676
G1 X82.581 Y46.829 E.31415
G1 X82.428 Y46.895 E.00522
G1 X82.239 Y47.021 E.00714
G1 X74.971 Y39.754 E.32266
G1 X74.754 Y39.754 E.00684
G1 X74.754 Y40.07 E.00992
G1 X81.979 Y47.295 E.32082
G1 X81.895 Y47.428 E.00494
G1 X81.805 Y47.655 E.00765
G1 X74.754 Y40.604 E.31306
G1 X74.754 Y41.137 E.01676
G1 X81.746 Y48.13 E.31048
G1 X81.746 Y48.664 E.01676
G1 X74.754 Y41.671 E.31048
